G21         ; Set units to mm
G90         ; Absolute positioning
M4 S0       ; Enable Laser/Spindle (0 power)


; Pass 0

M08; Enable Air assist

; First Move
G0 X24.26 Y6.00 

; Pass Z Height 0mm (Offset: 0mm)
G0 Z0.000
; Generated by LaserWeb (lw.raster-to-gcode.js)
; Size       : 0 x 0 mm
; PPI        : x: 72 - y: 72
; PPM        : x: 0.3527777778 - y: 0.3527777778
; Tool diam. : 0.2 mm
; Feed rate  : 3000 mm/min
; Beam range : 0 to 1000
; Beam power : 0 to 100 %
; Options    : trimLine, joinPixel, burnWhite

G1 F3000

G1 X24.26 Y6.00 S0.0000
X24.36 S5.2288
X24.56 S7.8431
X24.76 S133.3333
X24.96 S250.9804
X25.16 S342.4837
X25.36 S298.0392
X25.56 S81.0458
X25.66 S5.2288
Y6.20 S0.0000
X25.56 S81.0458
X25.36 S196.0784
X25.16 S392.1569
X24.96 S444.4444
X24.76 S381.6993
X24.56 S274.5098
X24.36 S151.6340
X24.26 S67.9739
Y6.40 S0.0000
X24.36 S180.3922
X24.56 S410.4575
X24.76 S525.4902
X24.96 S616.9935
X25.16 S627.4510
X25.36 S562.0915
X25.56 S402.6144
X25.66 S219.6078
X26.46 Y6.60 S0.0000
X26.36 S26.1438
X26.16 S70.5882
X25.96 S162.0915
X25.76 S264.0523
X25.56 S420.9150
X25.36 S543.7908
X25.16 S630.0654
X24.76 S666.6667
X24.56 S619.6078
X24.36 S556.8627
X24.16 S386.9281
X23.96 S235.2941
X23.76 S133.3333
X23.56 S57.5163
X23.46 S15.6863
Y6.80 S0.0000
X23.56 S33.9869
X23.76 S128.1046
X23.96 S300.6536
X24.16 S535.9477
X24.36 S622.2222
X25.56 S666.6667
X25.76 S643.1373
X25.96 S598.6928
X26.16 S366.0131
X26.36 S162.0915
X26.46 S57.5163
X27.26 Y7.00 S0.0000
X27.16 S2.6144
X26.96 S7.8431
X26.76 S39.2157
X26.56 S115.0327
X26.36 S240.5229
X26.16 S405.2288
X25.96 S528.1046
X25.76 S637.9085
X25.56 S656.2092
X24.36 S666.6667
X24.16 S648.3660
X23.96 S609.1503
X23.76 S499.3464
X23.56 S366.0131
X23.36 S198.6928
X23.16 S94.1176
X22.96 S18.3007
X22.86 S5.2288
X22.46 Y7.20 S0.0000
X22.56 S2.6144
X22.76 S5.2288
X22.96 S33.9869
X23.16 S86.2745
X23.36 S216.9935
X23.56 S368.6275
X23.76 S564.7059
X23.96 S656.2092
X25.96 S666.6667
X26.16 S656.2092
X26.36 S603.9216
X26.56 S418.3007
X26.76 S256.2092
X26.96 S122.8758
X27.16 S49.6732
X27.36 S7.8431
X27.46 S2.6144
Y7.40 S0.0000
X27.36 S10.4575
X27.16 S36.6013
X26.96 S211.7647
X26.76 S368.6275
X26.56 S488.8889
X26.36 S577.7778
X26.16 S645.7516
X25.96 S664.0523
X23.96 S666.6667
X23.76 S664.0523
X23.56 S630.0654
X23.36 S562.0915
X23.16 S454.9020
X22.96 S326.7974
X22.76 S149.0196
X22.56 S20.9150
X22.46 S7.8431
X22.06 Y7.60 S0.0000
X22.16 S7.8431
X22.36 S23.5294
X22.56 S78.4314
X22.76 S167.3203
X22.96 S324.1830
X23.16 S512.4183
X23.36 S606.5359
X26.56 S666.6667
X26.76 S630.0654
X26.96 S546.4052
X27.16 S389.5425
X27.36 S198.6928
X27.56 S104.5752
X27.76 S31.3725
X27.86 S13.0719
Y7.80 S0.0000
X27.76 S39.2157
X27.56 S99.3464
X27.36 S313.7255
X27.16 S530.7190
X26.96 S590.8497
X26.76 S637.9085
X26.56 S658.8235
X23.36 S666.6667
X23.16 S653.5948
X22.96 S630.0654
X22.76 S572.5490
X22.56 S475.8170
X22.36 S232.6797
X22.16 S73.2026
X22.06 S18.3007
X21.66 Y8.00 S0.0000
X21.76 S7.8431
X21.96 S78.4314
X22.16 S159.4771
X22.36 S266.6667
X22.56 S420.9150
X22.76 S611.7647
X22.96 S658.8235
X26.96 S666.6667
X27.16 S661.4379
X27.36 S650.9804
X27.56 S486.2745
X27.76 S308.4967
X27.96 S175.1634
X28.16 S70.5882
X28.26 S23.5294
Y8.20 S0.0000
X28.16 S57.5163
X27.96 S188.2353
X27.76 S386.9281
X27.56 S622.2222
X27.36 S658.8235
X22.76 S666.6667
X22.56 S664.0523
X22.36 S650.9804
X22.16 S562.0915
X21.96 S384.3137
X21.76 S203.9216
X21.66 S20.9150
X21.06 Y8.40 S0.0000
X21.16 S15.6863
X21.36 S36.6013
X21.56 S138.5621
X21.76 S256.2092
X21.96 S410.4575
X22.16 S541.1765
X22.36 S622.2222
X22.56 S658.8235
X27.36 S666.6667
X27.56 S664.0523
X27.76 S648.3660
X27.96 S546.4052
X28.16 S436.6013
X28.36 S313.7255
X28.56 S190.8497
X28.76 S54.9020
X28.86 S20.9150
X29.26 Y8.60 S0.0000
X29.16 S5.2288
X28.96 S13.0719
X28.76 S73.2026
X28.56 S154.2484
X28.36 S373.8562
X28.16 S530.7190
X27.96 S632.6797
X22.16 S666.6667
X21.96 S664.0523
X21.76 S585.6209
X21.56 S465.3595
X21.36 S292.8105
X21.16 S125.4902
X20.96 S57.5163
X20.76 S10.4575
X20.66 S5.2288
Y8.80 S0.0000
X20.76 S18.3007
X20.96 S57.5163
X21.16 S206.5359
X21.36 S407.8431
X21.56 S512.4183
X21.76 S596.0784
X21.96 S637.9085
X27.96 S666.6667
X28.16 S656.2092
X28.36 S619.6078
X28.56 S538.5621
X28.76 S407.8431
X28.96 S235.2941
X29.16 S67.9739
X29.26 S28.7582
X29.66 Y9.00 S0.0000
X29.56 S20.9150
X29.36 S65.3595
X29.16 S141.1765
X28.96 S235.2941
X28.76 S410.4575
X28.56 S580.3922
X28.36 S637.9085
X21.56 S666.6667
X21.36 S640.5229
X21.16 S590.8497
X20.96 S381.6993
X20.76 S211.7647
X20.56 S117.6471
X20.36 S52.2876
X20.26 S10.4575
Y9.20 S0.0000
X20.36 S31.3725
X20.56 S164.7059
X20.76 S318.9542
X20.96 S501.9608
X21.16 S596.0784
X21.36 S648.3660
X21.56 S661.4379
X28.36 S666.6667
X28.56 S661.4379
X28.76 S645.7516
X28.96 S603.9216
X29.16 S543.7908
X29.36 S371.2418
X29.56 S209.1503
X29.66 S65.3595
X30.26 Y9.40 S0.0000
X30.16 S13.0719
X29.96 S41.8301
X29.76 S122.8758
X29.56 S237.9085
X29.36 S394.7712
X29.16 S530.7190
X28.96 S653.5948
X20.96 S666.6667
X20.76 S624.8366
X20.56 S491.5033
X20.36 S350.3268
X20.16 S198.6928
X19.96 S101.9608
X19.76 S20.9150
X19.66 S7.8431
Y9.60 S0.0000
X19.76 S20.9150
X19.96 S47.0588
X20.16 S253.5948
X20.36 S439.2157
X20.56 S569.9346
X20.76 S648.3660
X20.96 S664.0523
X29.16 S666.6667
X29.36 S653.5948
X29.56 S601.3072
X29.76 S473.2026
X29.96 S305.8824
X30.16 S101.9608
X30.26 S33.9869
X30.66 Y9.80 S0.0000
X30.56 S26.1438
X30.36 S60.1307
X30.16 S209.1503
X29.96 S352.9412
X29.76 S483.6601
X29.56 S583.0065
X29.36 S645.7516
X20.56 S666.6667
X20.36 S630.0654
X20.16 S567.3203
X19.96 S449.6732
X19.76 S300.6536
X19.56 S169.9346
X19.36 S65.3595
X19.26 S20.9150
X18.66 Y10.00 S0.0000
X18.76 S2.6144
X18.96 S5.2288
X19.16 S13.0719
X19.36 S62.7451
X19.56 S156.8627
X19.76 S337.2549
X19.96 S556.8627
X20.16 S630.0654
X29.76 S666.6667
X29.96 S643.1373
X30.16 S601.3072
X30.36 S400.0000
X30.56 S151.6340
X30.76 S75.8170
X30.96 S18.3007
X31.16 S7.8431
X31.46 S2.6144
Y10.20 S0.0000
X31.36 S2.6144
X31.16 S7.8431
X30.96 S65.3595
X30.76 S164.7059
X30.56 S295.4248
X30.36 S436.6013
X30.16 S549.0196
X29.96 S640.5229
X29.76 S658.8235
X20.16 S666.6667
X19.96 S653.5948
X19.76 S622.2222
X19.56 S517.6471
X19.36 S397.3856
X19.16 S245.7516
X18.96 S122.8758
X18.76 S28.7582
X18.66 S5.2288
X18.26 Y10.40 S0.0000
X18.36 S5.2288
X18.56 S7.8431
X18.76 S49.6732
X18.96 S115.0327
X19.16 S269.2810
X19.36 S423.5294
X19.56 S577.7778
X19.76 S643.1373
X30.16 S666.6667
X30.36 S653.5948
X30.56 S632.6797
X30.76 S483.6601
X30.96 S334.6405
X31.16 S175.1634
X31.36 S67.9739
X31.56 S18.3007
X31.66 S5.2288
Y10.60 S0.0000
X31.56 S15.6863
X31.36 S65.3595
X31.16 S240.5229
X30.96 S394.7712
X30.76 S543.7908
X30.56 S611.7647
X30.36 S656.2092
X30.16 S664.0523
X19.76 S666.6667
X19.56 S661.4379
X19.36 S640.5229
X19.16 S593.4641
X18.96 S486.2745
X18.76 S332.0261
X18.56 S177.7778
X18.36 S26.1438
X18.26 S13.0719
X17.86 Y10.80 S0.0000
X17.96 S15.6863
X18.16 S41.8301
X18.36 S122.8758
X18.56 S216.9935
X18.76 S366.0131
X18.96 S501.9608
X19.16 S609.1503
X30.76 S666.6667
X30.96 S645.7516
X31.16 S546.4052
X31.36 S423.5294
X31.56 S253.5948
X31.76 S146.4052
X31.96 S52.2876
X32.06 S23.5294
Y11.00 S0.0000
X31.96 S67.9739
X31.76 S156.8627
X31.56 S397.3856
X31.36 S596.0784
X31.16 S635.2941
X30.96 S656.2092
X19.16 S666.6667
X18.96 S661.4379
X18.76 S653.5948
X18.56 S622.2222
X18.36 S583.0065
X18.16 S334.6405
X17.96 S120.2614
X17.86 S44.4444
X17.46 Y11.20 S0.0000
X17.56 S26.1438
X17.76 S99.3464
X17.96 S209.1503
X18.16 S345.0980
X18.36 S494.1176
X18.56 S643.1373
X18.76 S658.8235
X24.16 S666.6667
X24.36 S653.5948
X24.56 S635.2941
X24.76 S515.0327
X24.96 S418.3007
X25.16 S400.0000
X25.36 S449.6732
X25.56 S583.0065
X25.76 S643.1373
X31.16 S666.6667
X31.36 S661.4379
X31.56 S648.3660
X31.76 S533.3333
X31.96 S389.5425
X32.16 S243.1373
X32.36 S112.4183
X32.46 S41.8301
X33.26 Y11.40 S0.0000
X32.96 S2.6144
X32.76 S10.4575
X32.56 S26.1438
X32.36 S109.8039
X32.16 S248.3660
X31.96 S428.7582
X31.76 S616.9935
X31.56 S645.7516
X26.16 S666.6667
X25.96 S661.4379
X25.76 S653.5948
X25.56 S596.0784
X25.36 S475.8170
X25.16 S216.9935
X24.96 S122.8758
X24.76 S159.4771
X24.56 S342.4837
X24.36 S569.9346
X24.16 S616.9935
X23.96 S656.2092
X23.76 S664.0523
X18.36 S666.6667
X18.16 S635.2941
X17.96 S569.9346
X17.76 S389.5425
X17.56 S224.8366
X17.36 S78.4314
X17.16 S20.9150
X16.86 S2.6144
Y11.60 S0.0000
X16.96 S10.4575
X17.16 S23.5294
X17.36 S196.0784
X17.56 S339.8693
X17.76 S462.7451
X17.96 S556.8627
X18.16 S627.4510
X18.36 S653.5948
X23.76 S666.6667
X23.96 S630.0654
X24.16 S559.4771
X24.36 S423.5294
X24.56 S266.6667
X24.76 S154.2484
X24.96 S65.3595
X25.16 S49.6732
X25.36 S104.5752
X25.56 S248.3660
X25.76 S379.0850
X25.96 S520.2614
X26.16 S603.9216
X31.56 S666.6667
X31.76 S658.8235
X31.96 S648.3660
X32.16 S572.5490
X32.36 S486.2745
X32.56 S371.2418
X32.76 S237.9085
X32.96 S83.6601
X33.16 S20.9150
X33.26 S2.6144
X33.46 Y11.80 S0.0000
X33.36 S10.4575
X33.16 S26.1438
X32.96 S99.3464
X32.76 S219.6078
X32.56 S431.3725
X32.36 S569.9346
X32.16 S650.9804
X26.56 S666.6667
X26.36 S645.7516
X26.16 S609.1503
X25.96 S491.5033
X25.76 S352.9412
X25.56 S193.4641
X25.36 S78.4314
X25.26 S26.1438
X24.66 S0.0000
X24.56 S23.5294
X24.36 S54.9020
X24.16 S240.5229
X23.96 S410.4575
X23.76 S535.9477
X23.56 S619.6078
X23.36 S656.2092
X17.76 S666.6667
X17.56 S630.0654
X17.36 S543.7908
X17.16 S373.8562
X16.96 S135.9477
X16.76 S75.8170
X16.56 S26.1438
X16.46 S10.4575
Y12.00 S0.0000
X16.56 S36.6013
X16.76 S101.9608
X16.96 S253.5948
X17.16 S433.9869
X17.36 S551.6340
X17.56 S630.0654
X17.76 S656.2092
X23.36 S666.6667
X23.56 S619.6078
X23.76 S475.8170
X23.96 S321.5686
X24.16 S156.8627
X24.36 S75.8170
X24.56 S18.3007
X24.66 S7.8431
X25.26 S0.0000
X25.36 S7.8431
X25.56 S26.1438
X25.76 S60.1307
X25.96 S109.8039
X26.16 S274.5098
X26.36 S436.6013
X26.56 S583.0065
X32.16 S666.6667
X32.36 S661.4379
X32.56 S637.9085
X32.76 S580.3922
X32.96 S478.4314
X33.16 S305.8824
X33.36 S94.1176
X33.46 S36.6013
X33.86 Y12.20 S0.0000
X33.76 S28.7582
X33.56 S70.5882
X33.36 S172.5490
X33.16 S292.8105
X32.96 S481.0458
X32.76 S616.9935
X32.56 S650.9804
X27.16 S666.6667
X26.96 S648.3660
X26.76 S606.5359
X26.56 S512.4183
X26.36 S392.1569
X26.16 S248.3660
X26.06 S122.8758
X24.06 S0.0000
X23.96 S28.7582
X23.76 S156.8627
X23.56 S287.5817
X23.36 S426.1438
X23.16 S541.1765
X22.96 S643.1373
X22.76 S661.4379
X17.36 S666.6667
X17.16 S640.5229
X16.96 S598.6928
X16.76 S436.6013
X16.56 S279.7386
X16.36 S143.7908
X16.16 S52.2876
X16.06 S13.0719
Y12.40 S0.0000
X16.16 S36.6013
X16.36 S141.1765
X16.56 S316.3399
X16.76 S543.7908
X16.96 S622.2222
X17.16 S656.2092
X17.36 S664.0523
X22.76 S666.6667
X22.96 S653.5948
X23.16 S601.3072
X23.36 S313.7255
X23.56 S107.1895
X23.76 S62.7451
X23.96 S31.3725
X24.06 S7.8431
X26.06 S0.0000
X26.16 S23.5294
X26.36 S52.2876
X26.56 S96.7320
X26.76 S235.2941
X26.96 S496.7320
X27.16 S614.3791
X27.36 S661.4379
X32.56 S666.6667
X32.76 S664.0523
X32.96 S658.8235
X33.16 S630.0654
X33.36 S590.8497
X33.56 S397.3856
X33.76 S193.4641
X33.86 S78.4314
X34.66 Y12.60 S0.0000
X34.56 S2.6144
X34.36 S18.3007
X34.16 S65.3595
X33.96 S185.6209
X33.76 S295.4248
X33.56 S407.8431
X33.36 S541.1765
X33.16 S661.4379
X27.56 S666.6667
X27.36 S637.9085
X27.16 S590.8497
X26.96 S444.4444
X26.76 S287.5817
X26.56 S104.5752
X26.36 S18.3007
X26.16 S5.2288
X26.06 S2.6144
X24.06 S0.0000
X23.76 S2.6144
X23.56 S7.8431
X23.36 S20.9150
X23.16 S159.4771
X22.96 S358.1699
X22.76 S496.7320
X22.56 S596.0784
X22.36 S643.1373
X16.96 S666.6667
X16.76 S664.0523
X16.56 S630.0654
X16.36 S486.2745
X16.16 S363.3987
X15.96 S264.0523
X15.76 S151.6340
X15.56 S33.9869
X15.46 S10.4575
Y12.80 S0.0000
X15.56 S23.5294
X15.76 S78.4314
X15.96 S347.7124
X16.16 S551.6340
X16.36 S622.2222
X16.56 S658.8235
X22.36 S666.6667
X22.56 S609.1503
X22.76 S504.5752
X22.96 S298.0392
X23.16 S60.1307
X23.26 S23.5294
X26.66 S0.0000
X26.76 S15.6863
X26.96 S47.0588
X27.16 S235.2941
X27.36 S496.7320
X27.56 S596.0784
X33.36 S666.6667
X33.56 S661.4379
X33.76 S648.3660
X33.96 S562.0915
X34.16 S420.9150
X34.36 S146.4052
X34.56 S39.2157
X34.66 S5.2288
X34.86 Y13.00 S0.0000
X34.76 S31.3725
X34.56 S81.0458
X34.36 S232.6797
X34.16 S381.6993
X33.96 S546.4052
X33.76 S622.2222
X33.56 S658.8235
X27.96 S666.6667
X27.76 S575.1634
X27.56 S436.6013
X27.36 S326.7974
X27.16 S219.6078
X26.96 S101.9608
X26.76 S20.9150
X26.66 S7.8431
X23.26 S0.0000
X23.16 S10.4575
X22.96 S26.1438
X22.76 S130.7190
X22.56 S243.1373
X22.36 S389.5425
X22.16 S520.2614
X21.96 S630.0654
X16.56 S666.6667
X16.36 S664.0523
X16.16 S648.3660
X15.96 S616.9935
X15.76 S499.3464
X15.56 S337.2549
X15.36 S201.3072
X15.16 S78.4314
X15.06 S31.3725
X14.66 Y13.20 S0.0000
X14.76 S7.8431
X14.96 S26.1438
X15.16 S99.3464
X15.36 S201.3072
X15.56 S381.6993
X15.76 S556.8627
X15.96 S622.2222
X21.56 S666.6667
X21.76 S664.0523
X21.96 S632.6797
X22.16 S546.4052
X22.36 S358.1699
X22.56 S190.8497
X22.66 S36.6013
X27.46 S0.0000
X27.56 S101.9608
X27.76 S227.4510
X27.96 S460.1307
X28.16 S624.8366
X28.36 S653.5948
X33.96 S666.6667
X34.16 S648.3660
X34.36 S577.7778
X34.56 S415.6863
X34.76 S203.9216
X34.96 S112.4183
X35.16 S39.2157
X35.26 S15.6863
Y13.40 S0.0000
X35.16 S86.2745
X34.96 S216.9935
X34.76 S363.3987
X34.56 S501.9608
X34.36 S577.7778
X34.16 S635.2941
X33.96 S661.4379
X28.36 S666.6667
X28.16 S593.4641
X27.96 S423.5294
X27.76 S256.2092
X27.56 S91.5033
X27.46 S36.6013
X22.66 S0.0000
X22.56 S13.0719
X22.36 S67.9739
X22.16 S162.0915
X21.96 S300.6536
X21.76 S467.9739
X21.56 S648.3660
X15.96 S666.6667
X15.76 S650.9804
X15.56 S627.4510
X15.36 S564.7059
X15.16 S483.6601
X14.96 S295.4248
X14.76 S135.9477
X14.66 S41.8301
X14.06 Y13.60 S0.0000
X14.16 S5.2288
X14.36 S15.6863
X14.56 S86.2745
X14.76 S177.7778
X14.96 S305.8824
X15.16 S470.5882
X15.36 S648.3660
X21.56 S666.6667
X21.76 S640.5229
X21.96 S402.6144
X22.16 S198.6928
X22.26 S62.7451
X27.66 S0.0000
X27.76 S18.3007
X27.96 S164.7059
X28.16 S337.2549
X28.36 S567.3203
X34.76 S666.6667
X34.96 S543.7908
X35.16 S397.3856
X35.36 S209.1503
X35.56 S70.5882
X35.76 S26.1438
X35.96 S5.2288
X36.06 S2.6144
Y13.80 S0.0000
X35.96 S5.2288
X35.76 S18.3007
X35.56 S91.5033
X35.36 S243.1373
X35.16 S418.3007
X34.96 S606.5359
X34.76 S648.3660
X28.36 S666.6667
X28.16 S585.6209
X27.96 S400.0000
X27.76 S211.7647
X27.66 S23.5294
X22.26 S0.0000
X22.16 S88.8889
X21.96 S287.5817
X21.76 S470.5882
X21.56 S648.3660
X15.36 S666.6667
X15.16 S664.0523
X14.96 S635.2941
X14.76 S577.7778
X14.56 S465.3595
X14.36 S295.4248
X14.16 S54.9020
X14.06 S15.6863
X13.66 Y14.00 S0.0000
X13.76 S15.6863
X13.96 S36.6013
X14.16 S156.8627
X14.36 S295.4248
X14.56 S470.5882
X14.76 S585.6209
X14.96 S648.3660
X21.56 S666.6667
X21.76 S658.8235
X21.96 S564.7059
X22.16 S413.0719
X22.36 S138.5621
X22.56 S10.4575
X22.66 S2.6144
X27.46 S0.0000
X27.56 S13.0719
X27.76 S52.2876
X27.96 S316.3399
X28.16 S525.4902
X28.36 S624.8366
X34.96 S666.6667
X35.16 S656.2092
X35.36 S551.6340
X35.56 S444.4444
X35.76 S334.6405
X35.96 S211.7647
X36.16 S75.8170
X36.26 S26.1438
Y14.20 S0.0000
X36.16 S57.5163
X35.96 S167.3203
X35.76 S457.5163
X35.56 S630.0654
X35.36 S658.8235
X27.96 S666.6667
X27.76 S436.6013
X27.56 S91.5033
X27.46 S26.1438
X22.66 S0.0000
X22.56 S5.2288
X22.36 S23.5294
X22.16 S193.4641
X21.96 S549.0196
X14.56 S666.6667
X14.36 S643.1373
